!!!COM: Gibbons, Orlando
!!!CDT: 1583/12//-1625/06/05/
!!!CNT: English
!!!OTL: The Silver Swanne
!!!PDT: 1612
**kern	**kern	**kern	**kern	**kern
*staff5	*staff4	*staff3	*staff2	*staff1
*Ivox	*Ivox	*Ivox	*Ivox	*Ivox
*clefF4	*clefF4	*clefG2	*clefG2	*clefG2
*k[b-]	*k[b-]	*k[b-]	*k[b-]	*k[b-]
*met(C)	*met(C)	*met(C)	*met(C)	*met(C)
*M4/4	*M4/4	*M4/4	*M4/4	*M4/4
*MM54	*MM54	*MM54	*MM54	*MM54
=7	=7	=7	=7	=7
4r	2.r	2r	4r	2r
4.F\	.	.	4.a/	.
.	.	4r	.	2r
8F\	.	.	8a/	.
4E\	4C/	[4c\	4g/	.
=8	=8	=8	=8	=8
2.D\	4.F\	8c\L]	4f/	4r
.	.	8c\J	.	.
.	.	4B-\	(8d/L	4.ff\
.	8G\	.	8e/J	.
.	8A\L	4A/	8f/L	.
.	8B-\J	.	8g/J	8ff\
4C/	4c\	4A/	4a/)	4ee\
=9	=9	=9	=9	=9
8BB-/L	2d\	4.B-\	4.d/	2.dd\
8BB-/J	.	.	.	.
2B-\	.	.	.	.
.	.	(8c\	8e/	.
.	2r	8d\L	(8f/L	.
.	.	8e\	8g/	.
4A\	.	8f\	8a/)	4cc\
.	.	8c\J)	8f/J	.
=10	=10	=10	=10	=10
1G	4G\	4e-\	2.g/	4bn\
.	2c\	4e-\	.	4cc\
.	.	2d\	.	4.dd\
.	4Bn\	.	4g/	.
.	.	.	.	8cc\
=11	=11	=11	=11	=11
4C/	4c\	4g\	4e/	2cc\
2F\	4A\	4c\	4f/	.
.	4B-\	4d\	4.g/	4r
4E\	4c\	[4c\	.	4gg\
.	.	.	8g/	.
=12	=12	=12	=12	=12
4F\	4A\	4c\]	4a/	4cc\
4D\	4d\	(8d\L	4f/	4ff\
.	.	8f\J)	.	.
4E-\	8G\L	4e-\	4.g/	4b-\
.	8G\J	.	.	.
4BB-/	[4B-\	4d\	.	4dd\
.	.	.	8f/	.
=13	=13	=13	=13	=13
2.C/	4B-\]	2c\	4e/	4g/
.	4A\	.	(2f/	8a/L
.	.	.	.	8b-/J
.	2G\	2c\	.	4.cc\
4C/	.	.	4e/)	.
.	.	.	.	(8b-\
=14	=14	=14	=14	=14
4FF/	2F\	2c\	4f/	2a/)
!!!ENC: Craig Stuart Sapp
!!!END: 2004/11/27/
